src/work/blix/blixmap/static/images/icon-share.svg

<svg height="25" viewBox="0 0 18 25" width="18" xmlns="http://www.w3.org/2000/svg"><path d="m2.0048815 8c-1.10726548 0-2.0048815.89005841-2.0048815 2.0001062v12.9997876c0 1.1046282.8926228 2.0001062 1.99508929 2.0001062h14.00982141c1.1018574 0 1.9950893-.8900584 1.9950893-2.0001062v-12.9997876c0-1.10462816-.8938998-2.0001062-2.0048815-2.0001062h-1.995311c-.5521784 0-.9998075.44386483-.9998075 1.00000003 0 .55228476.4443084.9963436 1.0026758.99174853l2.0084936-.01652883v13.02478027h-14.0111694v-13h2.00104344c.55170847 0 .99895656-.44386482.99895656-1 0-.55228475-.44371665-1-.99980749-1zm6.99122302-8-4.2908812 4.29422684c-.38948407.38978775-.38711188 1.02388458.00085374 1.4118502l.08784592.08784592c.38995558.38995558 1.02270378.38945031 1.41578956-.00363547l1.79028754-1.79028749.00000007 12.0014981c.00000001.5514576.44386483.9985024 1.00000001.9985024.55228475 0 1.00000004-.4474895 1.00000004-.9985024l.0000001-12.0014981 1.7902872 1.79028749c.3919633.3919634 1.0278238.39160109 1.4157894.00363547l.0878459-.08784592c.3899556-.38995558.393061-1.01884943-.0002459-1.4118502z" fill-rule="evenodd"/></svg>

<?xml version="1.0" encoding="UTF-8" standalone="no"?>
<svg width="18px" height="25px" viewBox="0 0 18 25" version="1.1" xmlns="http://www.w3.org/2000/svg" xmlns:xlink="http://www.w3.org/1999/xlink" xmlns:sketch="http://www.bohemiancoding.com/sketch/ns">
    <!-- Generator: Sketch 3.1.1 (8761) - http://www.bohemiancoding.com/sketch -->
    <title>icon-share</title>
    <desc>Created with Sketch.</desc>
    <defs></defs>
    <g id="List-View" stroke="none" stroke-width="1" fill="none" fill-rule="evenodd" sketch:type="MSPage">
        <g id="icon-share" sketch:type="MSLayerGroup" fill="#000000">
            <path d="M2.0048815,8 C0.897616023,8 0,8.89005841 0,10.0001062 L0,22.9998938 C0,24.104522 0.892622799,25 1.99508929,25 L16.0049107,25 C17.1067681,25 18,24.1099416 18,22.9998938 L18,10.0001062 C18,8.89547804 17.1061002,8 15.9951185,8 L13.9998075,8 C13.4476291,8 13,8.44386483 13,9.00000003 C13,9.55228479 13.4443084,9.99634363 14.0026758,9.99174856 L16.0111694,9.97521973 L16.0111694,23 L2,23 L2,10 L4.00104344,10 C4.55275191,10 5,9.55613518 5,9 C5,8.44771525 4.55628335,8 4.00019251,8 L2.0048815,8 Z M8.99610452,5.55111512e-17 L4.70522332,4.29422684 C4.31573925,4.68401459 4.31811144,5.31811142 4.70607706,5.70607704 L4.79392298,5.79392296 C5.18387856,6.18387854 5.81662676,6.18337327 6.20971254,5.79028749 L8.00000008,4 L8.00000015,16.0014981 C8.00000016,16.5529557 8.44386498,17.0000005 9.00000016,17.0000005 C9.55228491,17.0000005 10.0000002,16.552511 10.0000002,16.0014981 L10.0000003,4 L11.7902875,5.79028749 C12.1822508,6.18225089 12.8181113,6.18188858 13.2060769,5.79392296 L13.2939228,5.70607704 C13.6838784,5.31612146 13.6869838,4.68722761 13.2936769,4.29422684 L8.99610452,5.55111512e-17 Z" sketch:type="MSShapeGroup"></path>
        </g>
    </g>
</svg>
